assets/svg/dollar-sign.svg

<svg width="12" height="17" viewBox="0 0 12 17" fill="none" xmlns="http://www.w3.org/2000/svg">
<path d="M6.92308 17V15.4986C8.48901 15.4179 9.69231 14.9981 10.6154 14.2393C11.5385 13.4805 12 12.4796 12 11.3172C12 10.0579 11.6209 9.1377 10.7967 8.55651C9.95604 7.89459 8.76923 7.37797 7.02198 7.05508H6.92308V3.18044C8.12637 3.34188 9.13187 3.68091 10.1538 4.35897L11.6374 2.51852C10.1538 1.59829 8.58791 1.09782 6.93956 1.01709V0H5.55494V1.00095C4.17033 1.08167 2.96703 1.50142 2.04396 2.26021C1.12088 3.01899 0.642857 4.01994 0.642857 5.18234C0.642857 6.34473 1.02198 7.2811 1.84615 7.8623C2.58791 8.44349 3.87363 8.94397 5.53846 9.283V13.2222C4.23626 13.0608 2.95055 12.4634 1.66484 11.4625L0 13.2222C1.66484 14.5622 3.51099 15.321 5.53846 15.4824V17H6.92308ZM7.02198 9.70275C7.94505 9.94492 8.50549 10.2032 8.86813 10.4615C9.14835 10.8006 9.32967 11.1235 9.32967 11.6401C9.32967 12.1406 9.14835 12.4796 8.68681 12.8186C8.22527 13.1576 7.66483 13.3191 7.02198 13.3998V9.70275ZM3.79121 6.10256C3.51099 5.8604 3.32967 5.44065 3.32967 5.02089C3.32967 4.52042 3.51099 4.18139 3.87363 3.84235C4.33516 3.50332 4.7967 3.34188 5.53846 3.26116V6.86135C4.61538 6.60304 4.07143 6.36087 3.79121 6.10256Z" fill="#14804A"/>
</svg>

<svg xmlns="http://www.w3.org/2000/svg" width="12" height="17" viewBox="0 0 12 17"><path d="M6.923 17v-1.501c1.566-.081 2.77-.5 3.692-1.26C11.54 13.48 12 12.48 12 11.317c0-1.26-.38-2.18-1.203-2.76-.841-.662-2.028-1.179-3.775-1.502h-.099V3.18c1.203.162 2.209.5 3.23 1.179l1.484-1.84Q9.411 1.139 6.94 1.017V0H5.555v1.001c-1.385.08-2.588.5-3.511 1.26C1.121 3.018.643 4.02.643 5.181c0 1.163.379 2.1 1.203 2.68.742.581 2.028 1.082 3.692 1.421v3.94c-1.302-.162-2.587-.76-3.873-1.76L0 13.223c1.665 1.34 3.511 2.098 5.538 2.26V17zm.099-7.297c.923.242 1.483.5 1.846.758.28.34.462.662.462 1.18 0 .5-.182.839-.643 1.178-.462.339-1.022.5-1.665.58zm-3.23-3.6C3.51 5.86 3.33 5.44 3.33 5.02c0-.5.181-.84.544-1.179.461-.339.923-.5 1.664-.58v3.6c-.923-.259-1.467-.501-1.747-.76"/></svg>
